X:1
T:Darling Corey
M:4/4
L:1/8
K:C
 G2| c2 c2 e4-| e6 cG| c c3- c4-| c6| G2| c2 c2G-F _E2| C6=E-D| CC C2 EE GG|\
 _B B3- B4-| B6| GG| c2 c2G-F _E2| C8-| C6||
